public/img/assets/icons/location-marker.svg

<svg width="71" height="70" viewBox="0 0 71 70" fill="none" xmlns="http://www.w3.org/2000/svg">
<path d="M51.999 48.5825C48.5249 52.0566 40.2294 60.3521 36.9091 63.6724C36.128 64.4535 34.8705 64.4524 34.0895 63.6713C30.8198 60.4016 22.7183 52.3001 19.0007 48.5825C9.88845 39.4703 9.88845 24.6964 19.0007 15.5842C28.1129 6.47194 42.8868 6.47194 51.999 15.5842C61.1112 24.6964 61.1112 39.4703 51.999 48.5825Z" stroke="#6892B9" stroke-width="1.5" stroke-linecap="round" stroke-linejoin="round"/>
<path d="M40.8741 26.25C40.044 26.2501 39.2223 26.4119 38.4576 26.726C37.6929 27.04 37.0007 27.4999 36.4219 28.0784L35.5048 28.9972L34.5784 28.0784C33.9996 27.5 33.3074 27.0403 32.5427 26.7263C31.778 26.4124 30.9563 26.2506 30.1262 26.2506C29.2961 26.2506 28.4744 26.4124 27.7097 26.7263C26.945 27.0403 26.2528 27.5 25.6739 28.0784C24.4935 29.2633 23.8335 30.848 23.8335 32.4975C23.8335 34.147 24.4935 35.7317 25.6739 36.9166L35.5048 46.6667L45.3264 36.9166C46.5068 35.7317 47.1668 34.147 47.1668 32.4975C47.1668 30.848 46.5068 29.2633 45.3264 28.0784C44.7476 27.4999 44.0554 27.04 43.2907 26.726C42.526 26.4119 41.7043 26.2501 40.8741 26.25V26.25Z" stroke="#6892B9" stroke-width="1.5"/>
</svg>

<svg width="71" height="70" fill="none" xmlns="http://www.w3.org/2000/svg"><path d="m51.999 48.583-15.09 15.09a1.99 1.99 0 0 1-2.82-.002L19.002 48.583c-9.113-9.113-9.113-23.887 0-32.999 9.112-9.112 23.886-9.112 32.998 0 9.112 9.112 9.112 23.886 0 32.998Z" stroke="#6892B9" stroke-width="1.5" stroke-linecap="round" stroke-linejoin="round"/><path d="M40.874 26.25c-.83 0-1.652.162-2.416.476a6.221 6.221 0 0 0-2.036 1.352l-.917.92-.927-.92a6.222 6.222 0 0 0-2.035-1.352 6.366 6.366 0 0 0-4.833 0 6.223 6.223 0 0 0-2.036 1.352 6.26 6.26 0 0 0-1.84 4.42c0 1.649.66 3.234 1.84 4.419l9.83 9.75 9.822-9.75a6.26 6.26 0 0 0 1.84-4.42 6.26 6.26 0 0 0-3.875-5.771 6.365 6.365 0 0 0-2.417-.476Z" stroke="#6892B9" stroke-width="1.5"/></svg>
